X:1
T:Title
%%score { ( 1 4 ) | ( 2 3 ) }
L:1/8
M:4/4
K:D
V:1 treble nm="Grand Piano"
V:4 treble 
V:2 bass 
V:3 bass 
V:1
 z4 z2[Q:1/4=118] D2 | F2 F2 F2 [CE]2 | D2 D2 D2 FG | [DFA]2 [DFA]2 [DGB]2 [DGB]2 | %4
[M:3/4] [DFA]2 [A,DF]2 [G,CE]2 |[M:1/4] D2 |[M:4/4] F2 F2 F2 [CE]2 |[M:9/8] D2 D- D d2- d B2 | %8
[M:4/4] A2 B2 A2 [DF]2 |[M:3/4] [CE]4 z2 |[M:1/4] [FA]2 |[M:4/4] [Fd]2 [Gd]2 [Fd]2 [FA]2 | %12
 [GA]4 G2 A2 | e2 e2 e2 c2 |[M:3/4] B4 A2 |[M:1/4] A2 |[M:4/4] d2 d2 d2 d2 |[M:9/8] z3 z3 z d2 | %18
[M:4/4] d2 A2 [A,DF]2[K:bass] [F,A,D]2 |[M:7/8] [CE]- [CE]3 z z2 |] %20
V:2
 z4 z2 [D,F,]2 | [D,A,D]2 [D,A,D]2 [D,A,D]2 [A,,G,]2 | z4 z2 .D2 | D,2 D,2 G,,2 G,,2 | %4
[M:3/4] D,2 D,2 A,,2 |[M:1/4] [D,F,A,]2 |[M:4/4] [D,A,D]2 [D,A,D]2 [D,A,D]2 [A,,G,]2 | %7
[M:9/8] [D,F,]2 [F,=C]- [F,C][K:treble] [G,B,D]2- [G,B,D] [^G,D=F]2 | %8
[M:4/4] [A,DF]2 [A,DF]2 [A,DF]2[K:bass] [A,,A,]2 |[M:3/4] A,2 z2 z2 |[M:1/4] [D,D]2 | %11
[M:4/4] [D,A,]2 [D,B,]2 [D,A,]2 [D,D]2 | [E,C]4 [E,C]2[K:treble] [A,CG]2 | %13
 [A,CG]2 [A,CG]2 [A,CG]2 [B,EG]2 |[M:3/4] [^G,D=F]4 [A,D^F]2 |[M:1/4] [CEG]2 | %16
[M:4/4] [DF]2 [DF]2 [=CDF]2 [CDF]2 |[M:9/8] [B,DG]2 [B,DG]- [B,DG] [^A,D^G]2- [A,DG] .[=A,DA]2 | %18
[M:4/4] [A,DF]2 [A,F]2[K:bass] A,,2 A,,2 |[M:7/8] z2 G,2 D,3 |] %20
V:3
 x8 | x8 | [D,F,A,]2 [D,G,B,]2 [D,F,A,]2 [D,A,]-[D,A,E] | x8 |[M:3/4] x6 |[M:1/4] x2 |[M:4/4] x8 | %7
[M:9/8] x4[K:treble] x5 |[M:4/4] x6[K:bass] x2 |[M:3/4] A,,4 [D,F,A,]2 |[M:1/4] x2 |[M:4/4] x8 | %12
 x6[K:treble] x2 | x8 |[M:3/4] x6 |[M:1/4] x2 |[M:4/4] x8 |[M:9/8] x9 |[M:4/4] x4[K:bass] x4 | %19
[M:7/8] A,,- A,,3 z z2 |] %20
V:4
 x8 | x8 | x8 | x8 |[M:3/4] x6 |[M:1/4] x2 |[M:4/4] x8 |[M:9/8] x9 |[M:4/4] x8 |[M:3/4] z2 G,2 D2 | %10
[M:1/4] x2 |[M:4/4] x8 | x8 | x8 |[M:3/4] x6 |[M:1/4] x2 |[M:4/4] x8 |[M:9/8] d2 d- d d2- d z F | %18
[M:4/4] x6[K:bass] x2 |[M:7/8] A,2 z2 [F,A,D]3 |] %20

